X: 1
T:YANKEE DOODLE DANDY  "YANKEEDD"
M:C
L:1/8
Q:80
C:after George M Cohan
S:MARCH
K:HP
[| {g}f3e{gef}ed{g}cd|
{gef}e4{gBd}B3e|
{gef}e3f{g}ec{g}BA|  !
{Gdc}d4{gdG}d3e|
{g}f2{e}f2{g}de{g}fa|
{f}g2f2{gef}e4|  !
{g}fe-ed{g}Bd-df|
{gef}e4{A}e3A|
{g}f3e{gef}ed{g}cd|  !
{gef}e4{gBd}B3e|
{gef}e3f{g}ec{g}BA|
{Gdc}d4{gdG}d3A|  !
{g}d{G}d{g}ef{g}df{g}eA|
{g}d{G}d{g}ef{g}d2{e}A2|
{g}Be-ed{g}c2{GdG}ec|  !
{Gdc}d4{gdG}d2|]
